X:24
T:O Lo Compogno
M:C
L:1/8
N:Anim
N:La Bourre 4th edition 1929, page 38
Z:Steve Mansfield www.lesession.co.uk May 2012
K:D
!mf!B2 B B B2 A2 | c > c d B c > c c c |
B2 B B B2 A2 | B > c d B c4 |
[M:5/4]c2 c c e e B B c > B ||[M:2/4] B2 A2 |
[M:5/4]c2 c c e e B B c > A ||[M:2/4] B4 |
"refrain"!f!d d/ d/ d e | f f/ f/ f f | e e e e | d2 A2 |
 d d/ d/ d e | f f/ f/ f f | e e e e | d4 |]

